assets/icons/emote/devilish-filled.svg

<?xml version="1.0" encoding="UTF-8" standalone="no"?>
<svg
   viewBox="0 0 24 24"
   height="24"
   width="24"
   version="1.1"
   id="svg4"
   sodipodi:docname="devilish-filled.svg"
   inkscape:version="1.2 (1:1.2.1+202207142221+cd75a1ee6d)"
   xmlns:inkscape="http://www.inkscape.org/namespaces/inkscape"
   xmlns:sodipodi="http://sodipodi.sourceforge.net/DTD/sodipodi-0.dtd"
   xmlns="http://www.w3.org/2000/svg"
   xmlns:svg="http://www.w3.org/2000/svg"
   xmlns:rdf="http://www.w3.org/1999/02/22-rdf-syntax-ns#"
   xmlns:cc="http://creativecommons.org/ns#"
   xmlns:dc="http://purl.org/dc/elements/1.1/">
  <metadata
     id="metadata10">
    <rdf:RDF>
      <cc:Work
         rdf:about="">
        <dc:format>image/svg+xml</dc:format>
        <dc:type
           rdf:resource="http://purl.org/dc/dcmitype/StillImage" />
      </cc:Work>
    </rdf:RDF>
  </metadata>
  <defs
     id="defs8" />
  <sodipodi:namedview
     pagecolor="#ffffff"
     bordercolor="#666666"
     borderopacity="1"
     objecttolerance="10"
     gridtolerance="10"
     guidetolerance="10"
     inkscape:pageopacity="0"
     inkscape:pageshadow="2"
     inkscape:window-width="1920"
     inkscape:window-height="1016"
     id="namedview6"
     showgrid="true"
     inkscape:object-paths="true"
     inkscape:snap-intersection-paths="true"
     inkscape:snap-smooth-nodes="true"
     inkscape:snap-midpoints="true"
     inkscape:zoom="18.937204"
     inkscape:cx="-0.31683664"
     inkscape:cy="2.3498717"
     inkscape:window-x="0"
     inkscape:window-y="0"
     inkscape:window-maximized="1"
     inkscape:current-layer="svg4"
     inkscape:pagecheckerboard="0"
     inkscape:showpageshadow="2"
     inkscape:deskcolor="#d1d1d1">
    <inkscape:grid
       type="xygrid"
       id="grid835"
       dotted="false"
       spacingx="1"
       spacingy="1"
       empspacing="5" />
    <inkscape:grid
       type="xygrid"
       id="grid869"
       dotted="true"
       spacingx="0.5"
       spacingy="0.5"
       empspacing="10" />
  </sodipodi:namedview>
  <path
     id="path987"
     style="display:inline;fill:#808080;fill-opacity:1;stroke:none;stroke-width:1"
     d="M 11.953125 2.625 A 9.375 9.375 0 0 0 5.8164062 4.9570312 C 4.6707984 4.661173 3.848062 3.8088325 3 3 C 2.7523201 4.3312899 2.8586534 5.673062 4.0488281 7.0449219 A 9.375 9.375 0 0 0 2.625 12 A 9.375 9.375 0 0 0 12 21.375 A 9.375 9.375 0 0 0 21.375 12 A 9.375 9.375 0 0 0 19.949219 7.046875 C 21.141091 5.6742913 21.247804 4.3319624 21 3 C 20.151487 3.8092625 19.3282 4.6616089 18.181641 4.9570312 A 9.375 9.375 0 0 0 12 2.625 A 9.375 9.375 0 0 0 11.953125 2.625 z M 8.8359375 7.6054688 C 9.5338486 7.6054688 10.125 8.1966202 10.125 8.8945312 L 10.125 10.105469 C 10.125 10.803379 9.5338486 11.355469 8.8359375 11.355469 C 8.1380264 11.355469 7.5859375 10.803379 7.5859375 10.105469 L 7.5859375 8.8945312 C 7.5859375 8.1966202 8.1380264 7.6054688 8.8359375 7.6054688 z M 15.125 7.625 C 15.82291 7.625 16.375 8.2161514 16.375 8.9140625 L 16.375 10.125 C 16.375 10.822911 15.82291 11.375 15.125 11.375 C 14.42709 11.375 13.875 10.822911 13.875 10.125 L 13.875 8.9140625 C 13.875 8.2161514 14.42709 7.625 15.125 7.625 z M 6.375 12.625 C 8.6179862 14.254308 15.332454 14.254308 17.625 12.625 L 17.589844 13.289062 C 17.549024 13.826201 16.468405 17.507815 11.982422 17.546875 C 7.4964591 17.585875 6.375 14.071873 6.375 13.40625 L 6.375 12.625 z " />
</svg>

<svg height="24" width="24" xmlns="http://www.w3.org/2000/svg"><path style="display:inline;fill:gray;fill-opacity:1;stroke:none;stroke-width:1" d="M11.953 2.625a9.375 9.375 0 0 0-6.137 2.332C4.671 4.661 3.848 3.809 3 3c-.248 1.331-.141 2.673 1.049 4.045A9.375 9.375 0 0 0 2.625 12 9.375 9.375 0 0 0 12 21.375 9.375 9.375 0 0 0 21.375 12a9.375 9.375 0 0 0-1.426-4.953C21.141 5.674 21.248 4.332 21 3c-.849.81-1.672 1.662-2.818 1.957A9.375 9.375 0 0 0 12 2.625a9.375 9.375 0 0 0-.047 0zm-3.117 4.98c.698 0 1.289.592 1.289 1.29v1.21c0 .698-.591 1.25-1.29 1.25a1.24 1.24 0 0 1-1.25-1.25v-1.21c0-.698.553-1.29 1.25-1.29zm6.289.02c.698 0 1.25.591 1.25 1.29v1.21a1.24 1.24 0 0 1-1.25 1.25 1.24 1.24 0 0 1-1.25-1.25v-1.21c0-.699.552-1.29 1.25-1.29zm-8.75 5c2.243 1.63 8.957 1.63 11.25 0l-.035.664c-.041.537-1.122 4.219-5.608 4.258-4.486.039-5.607-3.475-5.607-4.14v-.782z"/></svg>
